X:1
T:Awake, Thou That Sleepest
T:James H. Burke
T:Awake, Thou That Sleepest
T:Public Domain
T:Public Domain
C:James H. Burke
Z:Public Domain
%%score ( 1 2 ) ( 3 4 )
L:1/8
M:2/4
K:Eb
V:1 treble 
V:2 treble 
V:3 bass 
V:4 bass 
V:1
 [GB] | [GB]3 [GB] | [Ge]3 [GB] | [EA][EG] [B,F][B,E] | [B,E]2 [B,D][B,D] | %5
w: 1.~A-|rise and|shine; O|Christ- ian, do not|slum- ber; Thou|
w: 2.~“A-|rise!” says|Christ, and|lie not in the|sha- dow; Thou|
w: 3.~Rise|up, then,|Christ- ian,|and pur- sue thy|jour- ney, And|
w: 4.~As|ris- ing|sun, when|in His bright- ness|shin- ing Doth|
 [DA]2 [EG]2 [Ec]2 [EB]2 | [EB][EG] E[EG] | [DF]3 [DB] | [EB]3 [GB] | [Ge]3 [EG] | [Ec][EB] | %11
w: may’st not rest too|long to hide the|Let ev-|ery step|be “Christ”|a- long|
w: dost not ga- ther|pro- fit from such|Leave not|thy first|love for|the sake|
w: Christ shall be thy|con- fi- dence and|The light|of His|sweet smile|shall rest|
w: chase the dark- ness|of the night a-|So may|thy path,|in this|dark world|
 [DA][EG] | [EG]2 [DF][DF] | [CE]2 [DF]2 [EG]2 [GB]2 | [EG][DF] [B,E][B,D] | [B,E]3 x || %16
w: thy path-|way, For it|will lead thee up|to Heav- en’s height.||
w: of plea-|sure; To live|to God is to|be tru- ly blest.|A-|
w: up- on|thee, His pre-|sence shall go with|thee all the way.||
w: of sor-|row, Shine more|and more un- til|the per- fect day.||
[M:4/4]"^Refrain" [GB] x2 | (G2 G2 eB)[EG]E | (DD D2) [EB]2 [GB][GB] | (AA A2) [Ad]3 [Ad] | %20
w: ||||
w: wake,|thou * * * that sleep-|rise * * from the dead,|Christ * * shall give|
w: ||||
w: ||||
 (G2 A2 G2) [GB]2 | (A2 A2 A2) [Ac]2 | ([GB]3 [EG]) E2 [EA]2 | (E2 E2 D2) [DF]2 | (E2 C2 B,2) z2 |] %25
w: |||||
w: Shall * * give|light. * * *||||
w: |||||
w: |||||
 x8 |] %26
w: |
w: |
w: |
w: |
V:2
 x | x4 | x4 | x4 | x4 | x8 | x2 E x | x4 | x4 | x4 | x2 | x2 | x4 | x8 | x4 | x4 ||[M:4/4] x3 | %17
w: ||||||light;|||||||||||
w: ||||||rest;|||||||||||
w: ||||||stay;|||||||||||
w: ||||||way;|||||||||||
 e4 G2 E x | B4 x4 | c4 x4 | e6 x2 | c6 x2 | x4 E2 x2 | G6 x2 | E6 x2 |] x8 |] %26
w: |||||||||
w: est, And a-|And|thee,|thee||||||
w: |||||||||
w: |||||||||
V:3
 [E,B,] | [E,B,]3 [E,B,] | [E,B,]3 [E,B,] | [E,C][E,B,] [E,A,][E,G,] | [B,,G,]2 [B,,F,][B,,F,] | %5
w: ~|~ ~|~ ~|~ ~ ~ ~|~ ~ ~|
 [B,,B,]2 [E,B,]2 A,2 ([G,B,][F,A,]) | [E,G,][E,B,] [G,B,][E,B,] | [B,,B,]3 [B,,A,] | %8
w: ~ ~ ~ ~ *|~ ~ ~ ~|~ ~|
 [E,G,]3 [E,B,] | [E,B,]3 [E,B,] | A,[G,B,] | [F,B,][E,B,] | [B,,B,]2 [B,,B,][B,,A,] | %13
w: ~ ~|~ ~|~ ~|~ ~|~ ~ ~|
 [C,G,]2 [B,,B,]2 x4 | [E,B,]2 [E,B,]2 | [B,,B,][B,,A,] [B,,G,][B,,F,] || [E,G,]3 | %17
w: ~ ~|~ ~|~ ~ ~ ~|a-|
[M:4/4] [E,B,] x7 | [E,B,]2 [E,B,]2 [E,B,]2 [E,B,][E,G,] | %19
w: wake,|~ ~ ~ sleep- est|
 [B,,F,][B,,F,] [B,,A,]2 [E,G,]2 [E,B,][E,E] | [A,E][A,E] [A,E]2 [F,B,]2 [F,B,]2 | %21
w: a- wake, ~ ~ ~ a-|rise ~ ~ ~ the|
 B,2 C2 B,2 [E,E]2 | [A,E]2 [A,E]2 [A,E]2 [A,E]2 | E3 B, [E,G,]2 [A,,C]2 | %24
w: dead, ~ ~ and|~ ~ ~ ~|~ ~ shall give|
 [B,,B,]2 [B,,B,]2 [B,,B,]2 [B,,A,]2 |] G,2 A,2 G,2 z2 |] %26
w: give thee light. *||
V:4
 x | x4 | x4 | x4 | x4 | x4 A,2 x2 | x4 | x4 | x4 | x4 | A, x | x2 | x4 | x8 | x4 | x4 || x3 | %17
w: |||||~|||||~|||||||
[M:4/4] x8 | x8 | x8 | x8 | E,6 x2 | x8 | E,4 x4 | x8 |] E,6 x2 |] %26
w: ||||Christ||~|||

